svg/alphabet_tengwar.svg

<svg xmlns="http://www.w3.org/2000/svg" viewBox="0 0 24 24"><path d="m10 7 2.5-4H15l-4 4zm2.5 2c-.54 0-1.04.13-1.5.35V9H8v2h1v10h2v-8.5c0-.83.67-1.5 1.5-1.5s1.5.67 1.5 1.5v2c0 .83-.67 1.5-1.5 1.5H12v2h.5c1.93 0 3.5-1.57 3.5-3.5v-2c0-1.93-1.57-3.5-3.5-3.5"/></svg>

<?xml version="1.0" encoding="UTF-8"?><!DOCTYPE svg PUBLIC "-//W3C//DTD SVG 1.1//EN" "http://www.w3.org/Graphics/SVG/1.1/DTD/svg11.dtd"><svg xmlns="http://www.w3.org/2000/svg" xmlns:xlink="http://www.w3.org/1999/xlink" version="1.1" id="mdi-alphabet-tengwar" width="24" height="24" viewBox="0 0 24 24"><path d="M10 7L12.5 3H15L11 7H10M12.5 9C11.96 9 11.46 9.13 11 9.35V9H8V11H9V21H11V12.5C11 11.67 11.67 11 12.5 11C13.33 11 14 11.67 14 12.5V14.5C14 15.33 13.33 16 12.5 16H12V18H12.5C14.43 18 16 16.43 16 14.5V12.5C16 10.57 14.43 9 12.5 9Z" /></svg>
